X:145
T: SO TRET'N WIR NUN HERFUERE
N: Z0144
O: Europa, Mitteleuropa, Deutschland, Hildburghausen
R: Erzaehlung, lustige Romanze, Kirchweih - Lied
M: 2/4
L: 1/16
K: Bb
F2 | B3cd2e2 | f2d2z4 |
f2f2f2f2 | f2edc2
cd | e2e2d2d2 | c4B2z2 |
B3cd2c2 | Bcdef2
f2 | g2f2e2d2 | c2c2B2

@@@ Tune index: 9903
